X:1
T:269. DÖNADÖNA TÖDÖ
M:4/4
K:C
G2 G A G | E2 C2 | D2 E/2 F/2 z | G3 z |
G2 G A G | E2 C2 | D2 D/2 D/2 F G | C3 z |
|: F2 F E | D2 z2 | G/2 A/2 G F | E3 z |
F2 F A A | G2 c/2 c/2 | B2 B A A | G3 z :|
G2 G A G | E2 C2 | D2 E/2 F/2 z | G3 z |
G2 G c B | B2 A2 | c2 B c | c3 z ||